X:839
T:McDonagh's
R:reel
D:Matt Molloy
Z:id:hn-reel-839
M:C|
L:1/8
K:Edor
B2A=c BEED | ~E2BE ~E2BE | BAFA D3E | (3FED AD BAFA |
B2A=c BEED | ~E2BE ~E2BE | BAGF GABc |1 dBAG FDFA :|2 dBAG FDD2 ||
|: d2ef gfed | fB~B2 fB~B2 | d2ef gfed | ceae ceae |
d2ef gfed | fB~B2 fb~b2 | ~a2ge fdec |1 dBAG FDD2 :|2 dBAG FDFA ||
P:variations
|: BdA=c BEED | ~E2BE ~E2BE | BAFA D3E | EDAd BAFA |
(3Bcd A=c BEED | ~E2BE ~E2BE | BAGF GABc |1 dBAG FDFA :|2 dBAG FDD2 ||
|: d2ef gfed | fB~B2 fB~B2 | d2ef gfed | ceae ceae |
d2ef gfed | fB~B2 fbbf | afge fdec |1 dBAG FDD2 :|2 dBAG FDFA ||

